topics/special-relativity/Latex/images/svg/Length_contraction_rest_frame.svg

<?xml version="1.0" encoding="UTF-8"?>
<svg xmlns="http://www.w3.org/2000/svg" xmlns:xlink="http://www.w3.org/1999/xlink" width="147.786pt" height="218.475pt" viewBox="0 0 147.786 218.475" version="1.1">
<defs>
<g>
<symbol overflow="visible" id="glyph0-0">
<path style="stroke:none;" d=""/>
</symbol>
<symbol overflow="visible" id="glyph0-1">
<path style="stroke:none;" d="M 1.328125 -0.828125 C 1.859375 -1.40625 2.15625 -1.65625 2.515625 -1.96875 C 2.515625 -1.96875 3.125 -2.5 3.484375 -2.859375 C 4.4375 -3.78125 4.65625 -4.265625 4.65625 -4.3125 C 4.65625 -4.40625 4.5625 -4.40625 4.546875 -4.40625 C 4.46875 -4.40625 4.453125 -4.390625 4.390625 -4.296875 C 4.09375 -3.8125 3.890625 -3.65625 3.65625 -3.65625 C 3.40625 -3.65625 3.296875 -3.8125 3.140625 -3.984375 C 2.953125 -4.203125 2.78125 -4.40625 2.453125 -4.40625 C 1.703125 -4.40625 1.25 -3.484375 1.25 -3.265625 C 1.25 -3.21875 1.28125 -3.15625 1.359375 -3.15625 C 1.453125 -3.15625 1.46875 -3.203125 1.5 -3.265625 C 1.6875 -3.734375 2.265625 -3.734375 2.34375 -3.734375 C 2.546875 -3.734375 2.734375 -3.671875 2.96875 -3.59375 C 3.375 -3.4375 3.484375 -3.4375 3.734375 -3.4375 C 3.375 -3.015625 2.546875 -2.296875 2.359375 -2.140625 L 1.453125 -1.296875 C 0.78125 -0.625 0.421875 -0.0625 0.421875 0.015625 C 0.421875 0.109375 0.53125 0.109375 0.546875 0.109375 C 0.625 0.109375 0.640625 0.09375 0.703125 -0.015625 C 0.9375 -0.375 1.234375 -0.640625 1.5625 -0.640625 C 1.78125 -0.640625 1.890625 -0.546875 2.140625 -0.265625 C 2.296875 -0.046875 2.484375 0.109375 2.765625 0.109375 C 3.765625 0.109375 4.34375 -1.15625 4.34375 -1.421875 C 4.34375 -1.46875 4.296875 -1.53125 4.21875 -1.53125 C 4.125 -1.53125 4.109375 -1.46875 4.078125 -1.390625 C 3.84375 -0.75 3.203125 -0.5625 2.875 -0.5625 C 2.6875 -0.5625 2.5 -0.625 2.296875 -0.6875 C 1.953125 -0.8125 1.796875 -0.859375 1.59375 -0.859375 C 1.578125 -0.859375 1.421875 -0.859375 1.328125 -0.828125 Z M 1.328125 -0.828125 "/>
</symbol>
<symbol overflow="visible" id="glyph0-2">
<path style="stroke:none;" d="M 7.171875 -6.5625 C 7.1875 -6.609375 7.203125 -6.65625 7.203125 -6.71875 C 7.203125 -6.8125 7.15625 -6.8125 6.953125 -6.8125 L 2.75 -6.8125 C 2.515625 -6.8125 2.5 -6.796875 2.4375 -6.609375 L 1.890625 -4.8125 C 1.875 -4.765625 1.859375 -4.6875 1.859375 -4.671875 C 1.859375 -4.671875 1.859375 -4.5625 1.984375 -4.5625 C 2.078125 -4.5625 2.09375 -4.640625 2.109375 -4.671875 C 2.5 -5.84375 3.015625 -6.5 4.5625 -6.5 L 6.1875 -6.5 L 0.625 -0.265625 C 0.625 -0.265625 0.578125 -0.125 0.578125 -0.09375 C 0.578125 0 0.640625 0 0.828125 0 L 5.15625 0 C 5.40625 0 5.40625 -0.015625 5.46875 -0.203125 L 6.1875 -2.40625 C 6.1875 -2.4375 6.21875 -2.515625 6.21875 -2.546875 C 6.21875 -2.609375 6.1875 -2.65625 6.09375 -2.65625 C 6 -2.65625 5.984375 -2.625 5.921875 -2.40625 C 5.484375 -1.0625 5 -0.34375 3.3125 -0.34375 L 1.609375 -0.34375 Z M 7.171875 -6.5625 "/>
</symbol>
<symbol overflow="visible" id="glyph1-0">
<path style="stroke:none;" d=""/>
</symbol>
<symbol overflow="visible" id="glyph1-1">
<path style="stroke:none;" d="M 2.328125 -4.4375 C 2.328125 -4.625 2.328125 -4.625 2.125 -4.625 C 1.671875 -4.1875 1.046875 -4.1875 0.765625 -4.1875 L 0.765625 -3.9375 C 0.921875 -3.9375 1.390625 -3.9375 1.765625 -4.125 L 1.765625 -0.578125 C 1.765625 -0.34375 1.765625 -0.25 1.078125 -0.25 L 0.8125 -0.25 L 0.8125 0 C 0.9375 0 1.796875 -0.03125 2.046875 -0.03125 C 2.265625 -0.03125 3.140625 0 3.296875 0 L 3.296875 -0.25 L 3.03125 -0.25 C 2.328125 -0.25 2.328125 -0.34375 2.328125 -0.578125 Z M 2.328125 -4.4375 "/>
</symbol>
<symbol overflow="visible" id="glyph1-2">
<path style="stroke:none;" d="M 3.515625 -1.265625 L 3.28125 -1.265625 C 3.265625 -1.109375 3.1875 -0.703125 3.09375 -0.640625 C 3.046875 -0.59375 2.515625 -0.59375 2.40625 -0.59375 L 1.125 -0.59375 C 1.859375 -1.234375 2.109375 -1.4375 2.515625 -1.765625 C 3.03125 -2.171875 3.515625 -2.609375 3.515625 -3.265625 C 3.515625 -4.109375 2.78125 -4.625 1.890625 -4.625 C 1.03125 -4.625 0.4375 -4.015625 0.4375 -3.375 C 0.4375 -3.03125 0.734375 -2.984375 0.8125 -2.984375 C 0.96875 -2.984375 1.171875 -3.109375 1.171875 -3.359375 C 1.171875 -3.484375 1.125 -3.734375 0.765625 -3.734375 C 0.984375 -4.21875 1.453125 -4.375 1.78125 -4.375 C 2.484375 -4.375 2.84375 -3.828125 2.84375 -3.265625 C 2.84375 -2.65625 2.40625 -2.1875 2.1875 -1.9375 L 0.515625 -0.265625 C 0.4375 -0.203125 0.4375 -0.1875 0.4375 0 L 3.3125 0 Z M 3.515625 -1.265625 "/>
</symbol>
<symbol overflow="visible" id="glyph2-0">
<path style="stroke:none;" d=""/>
</symbol>
<symbol overflow="visible" id="glyph2-1">
<path style="stroke:none;" d="M 4.40625 -6.953125 C 4.34375 -7.09375 4.3125 -7.140625 4.140625 -7.140625 C 3.984375 -7.140625 3.953125 -7.09375 3.890625 -6.953125 L 0.515625 -0.203125 C 0.46875 -0.109375 0.46875 -0.09375 0.46875 -0.078125 C 0.46875 0 0.53125 0 0.6875 0 L 7.609375 0 C 7.765625 0 7.828125 0 7.828125 -0.078125 C 7.828125 -0.09375 7.828125 -0.109375 7.78125 -0.203125 Z M 3.828125 -6.140625 L 6.515625 -0.75 L 1.140625 -0.75 Z M 3.828125 -6.140625 "/>
</symbol>
</g>
<clipPath id="clip1">
  <path d="M 0 0 L 147.785156 0 L 147.785156 218.476563 L 0 218.476563 Z M 0 0 "/>
</clipPath>
<clipPath id="clip2">
  <path d="M 131 85 L 147.785156 85 L 147.785156 118 L 131 118 Z M 131 85 "/>
</clipPath>
<clipPath id="clip3">
  <path d="M 126 80 L 147.785156 80 L 147.785156 123 L 126 123 Z M 126 80 "/>
</clipPath>
</defs>
<g id="surface1">
<g clip-path="url(#clip1)" clip-rule="nonzero">
<path style=" stroke:none;fill-rule:nonzero;fill:rgb(100%,89.411926%,78.431702%);fill-opacity:1;" d="M 0 218.476563 L 147.785156 218.476563 L 147.785156 0 L 0 0 Z M 0 218.476563 "/>
</g>
<path style="fill-rule:nonzero;fill:rgb(100%,50%,0%);fill-opacity:1;stroke-width:0.3985;stroke-linecap:butt;stroke-linejoin:miter;stroke:rgb(0%,0%,0%);stroke-opacity:1;stroke-miterlimit:10;" d="M 7.794156 -0.001875 C 7.794156 4.306719 4.305875 7.795 0.0011875 7.795 C -4.3035 7.795 -7.795687 4.306719 -7.795687 -0.001875 C -7.795687 -4.306563 -4.3035 -7.794844 0.0011875 -7.794844 C 4.305875 -7.794844 7.794156 -4.306563 7.794156 -0.001875 Z M 7.794156 -0.001875 " transform="matrix(1,0,0,-1,46.241,101.545)"/>
<g clip-path="url(#clip2)" clip-rule="nonzero">
<path style=" stroke:none;fill-rule:nonzero;fill:rgb(50%,50%,50%);fill-opacity:1;" d="M 147.585938 101.546875 C 147.585938 92.933594 144.097656 85.953125 139.792969 85.953125 C 135.488281 85.953125 131.996094 92.933594 131.996094 101.546875 C 131.996094 110.15625 135.488281 117.136719 139.792969 117.136719 C 144.097656 117.136719 147.585938 110.15625 147.585938 101.546875 Z M 147.585938 101.546875 "/>
</g>
<g clip-path="url(#clip3)" clip-rule="nonzero">
<path style="fill:none;stroke-width:0.3985;stroke-linecap:butt;stroke-linejoin:miter;stroke:rgb(0%,0%,0%);stroke-opacity:1;stroke-miterlimit:10;" d="M 101.344938 -0.001875 C 101.344938 8.611406 97.856656 15.591875 93.551969 15.591875 C 89.247281 15.591875 85.755094 8.611406 85.755094 -0.001875 C 85.755094 -8.61125 89.247281 -15.591719 93.551969 -15.591719 C 97.856656 -15.591719 101.344938 -8.61125 101.344938 -0.001875 Z M 101.344938 -0.001875 " transform="matrix(1,0,0,-1,46.241,101.545)"/>
</g>
<path style="fill-rule:nonzero;fill:rgb(50%,50%,50%);fill-opacity:1;stroke-width:0.3985;stroke-linecap:butt;stroke-linejoin:miter;stroke:rgb(0%,0%,0%);stroke-opacity:1;stroke-miterlimit:10;" d="M 15.591031 93.552812 C 15.591031 97.8575 8.610563 101.345781 0.0011875 101.345781 C -8.612094 101.345781 -15.592563 97.8575 -15.592563 93.552812 C -15.592563 89.244219 -8.612094 85.755937 0.0011875 85.755937 C 8.610563 85.755937 15.591031 89.244219 15.591031 93.552812 Z M 15.591031 93.552812 " transform="matrix(1,0,0,-1,46.241,101.545)"/>
<path style="fill:none;stroke-width:1.49442;stroke-linecap:butt;stroke-linejoin:miter;stroke:rgb(100%,0%,0%);stroke-opacity:1;stroke-dasharray:2.98883,2.98883;stroke-miterlimit:10;" d="M 0.0011875 -2.337813 L 89.907438 -2.337813 " transform="matrix(1,0,0,-1,46.241,101.545)"/>
<path style=" stroke:none;fill-rule:nonzero;fill:rgb(100%,0%,0%);fill-opacity:1;" d="M 139.785156 103.882813 L 133.96875 100.972656 L 136.148438 103.882813 L 133.96875 106.792969 "/>
<path style="fill:none;stroke-width:1.49442;stroke-linecap:butt;stroke-linejoin:miter;stroke:rgb(100%,0%,0%);stroke-opacity:1;stroke-dasharray:2.98883,2.98883;stroke-miterlimit:10;" d="M 93.544156 2.337969 L 3.637906 2.337969 " transform="matrix(1,0,0,-1,46.241,101.545)"/>
<path style=" stroke:none;fill-rule:nonzero;fill:rgb(100%,0%,0%);fill-opacity:1;" d="M 46.242188 99.207031 L 52.058594 102.117188 L 49.878906 99.207031 L 52.058594 96.296875 "/>
<path style="fill:none;stroke-width:1.49442;stroke-linecap:butt;stroke-linejoin:miter;stroke:rgb(100%,0%,0%);stroke-opacity:1;stroke-dasharray:2.98883,2.98883;stroke-miterlimit:10;" d="M -2.338656 -0.001875 L -2.338656 89.908281 " transform="matrix(1,0,0,-1,46.241,101.545)"/>
<path style=" stroke:none;fill-rule:nonzero;fill:rgb(100%,0%,0%);fill-opacity:1;" d="M 43.902344 8 L 40.992188 13.816406 L 43.902344 11.636719 L 46.8125 13.816406 "/>
<g style="fill:rgb(100%,0%,0%);fill-opacity:1;">
  <use xlink:href="#glyph0-1" x="30.733" y="56.171"/>
</g>
<g style="fill:rgb(100%,0%,0%);fill-opacity:1;">
  <use xlink:href="#glyph1-1" x="35.366" y="57.665"/>
</g>
<path style="fill:none;stroke-width:1.49442;stroke-linecap:butt;stroke-linejoin:miter;stroke:rgb(100%,0%,0%);stroke-opacity:1;stroke-dasharray:2.98883,2.98883;stroke-miterlimit:10;" d="M 2.337125 93.545 L 2.337125 3.634844 " transform="matrix(1,0,0,-1,46.241,101.545)"/>
<path style=" stroke:none;fill-rule:nonzero;fill:rgb(100%,0%,0%);fill-opacity:1;" d="M 48.578125 101.546875 L 51.488281 95.726563 L 48.578125 97.910156 L 45.671875 95.726563 "/>
<g style="fill:rgb(100%,0%,0%);fill-opacity:1;">
  <use xlink:href="#glyph0-1" x="52.647" y="56.171"/>
</g>
<g style="fill:rgb(100%,0%,0%);fill-opacity:1;">
  <use xlink:href="#glyph1-2" x="57.281" y="57.665"/>
</g>
<path style="fill:none;stroke-width:0.79701;stroke-linecap:butt;stroke-linejoin:miter;stroke:rgb(0%,0%,0%);stroke-opacity:1;stroke-miterlimit:10;" d="M -23.385531 0.798906 L -23.385531 92.748125 " transform="matrix(1,0,0,-1,46.241,101.545)"/>
<path style="fill:none;stroke-width:0.79701;stroke-linecap:round;stroke-linejoin:round;stroke:rgb(0%,0%,0%);stroke-opacity:1;stroke-miterlimit:10;" d="M -2.548844 3.110074 C -2.084 1.242886 -1.044937 0.36398 0.0019375 0.00069875 C -1.044937 -0.362583 -2.084 -1.245395 -2.548844 -3.112583 " transform="matrix(0,1,1,0,22.85477,101.1465)"/>
<path style="fill:none;stroke-width:0.79701;stroke-linecap:round;stroke-linejoin:round;stroke:rgb(0%,0%,0%);stroke-opacity:1;stroke-miterlimit:10;" d="M -2.550689 3.112583 C -2.085845 1.245395 -1.046783 0.362583 0.0000925 -0.00069875 C -1.046783 -0.36398 -2.085845 -1.242886 -2.550689 -3.110074 " transform="matrix(0,-1,-1,0,22.85477,8.39853)"/>
<g style="fill:rgb(0%,0%,0%);fill-opacity:1;">
  <use xlink:href="#glyph2-1" x="3.321" y="58.177"/>
</g>
<g style="fill:rgb(0%,0%,0%);fill-opacity:1;">
  <use xlink:href="#glyph0-2" x="11.622835" y="58.177"/>
</g>
</g>
</svg>

<svg xmlns="http://www.w3.org/2000/svg" xmlns:xlink="http://www.w3.org/1999/xlink" width="197.05" height="291.3" viewBox="0 0 147.79 218.47"><defs><symbol id="d" overflow="visible"><path d="M1.33-.83c.53-.58.83-.83 1.19-1.14 0 0 .6-.53.96-.89.96-.92 1.18-1.4 1.18-1.45 0-.1-.1-.1-.11-.1-.08 0-.1.02-.16.11-.3.49-.5.64-.73.64-.25 0-.36-.15-.52-.32-.19-.22-.36-.43-.69-.43-.75 0-1.2.93-1.2 1.14q0 .1.1.11c.1 0 .12-.04.15-.1.19-.47.77-.47.84-.47q.3.01.63.14c.4.15.51.15.76.15a16 16 0 0 1-1.37 1.3l-.9.84A5 5 0 0 0 .41.02C.42.1.53.1.55.1Q.64.13.7-.02c.24-.35.53-.62.86-.62.22 0 .33.1.58.37.16.22.34.38.63.38 1 0 1.57-1.27 1.57-1.53q0-.1-.12-.11c-.1 0-.11.06-.14.14-.24.64-.88.83-1.2.83Q2.59-.57 2.3-.7c-.35-.12-.5-.17-.7-.17-.02 0-.18 0-.27.03m0 0" style="stroke:none"/></symbol><symbol id="h" overflow="visible"><path d="M7.17-6.56q.03-.07.03-.16c0-.1-.04-.1-.25-.1h-4.2c-.23 0-.25.02-.31.21l-.55 1.8-.03.14s0 .1.12.1c.1 0 .11-.07.13-.1C2.5-5.84 3-6.5 4.56-6.5H6.2L.63-.27l-.05.18c0 .09.06.09.25.09h4.33c.25 0 .25-.02.3-.2l.73-2.2.03-.15q.01-.1-.13-.1c-.09 0-.1.02-.17.24C5.48-1.06 5-.34 3.32-.34H1.6Zm0 0" style="stroke:none"/></symbol><symbol id="e" overflow="visible"><path d="M2.33-4.44c0-.18 0-.18-.2-.18-.46.43-1.08.43-1.36.43v.25c.15 0 .62 0 1-.19v3.55c0 .24 0 .33-.7.33H.82V0l1.24-.03L3.3 0v-.25h-.27c-.7 0-.7-.1-.7-.33Zm0 0" style="stroke:none"/></symbol><symbol id="f" overflow="visible"><path d="M3.52-1.27h-.24c-.01.16-.1.57-.19.63-.04.05-.57.05-.68.05H1.13c.73-.64.98-.85 1.39-1.18.51-.4 1-.84 1-1.5 0-.84-.74-1.35-1.63-1.35-.86 0-1.45.6-1.45 1.25 0 .34.3.39.37.39.16 0 .36-.13.36-.38 0-.12-.04-.37-.4-.37a1.1 1.1 0 0 1 1.01-.64c.7 0 1.06.54 1.06 1.1 0 .61-.43 1.08-.65 1.33L.52-.27C.44-.2.44-.19.44 0H3.3Zm0 0" style="stroke:none"/></symbol><symbol id="g" overflow="visible"><path d="M4.4-6.95c-.06-.14-.09-.2-.26-.2-.16 0-.19.06-.25.2L.52-.2l-.05.12c0 .08.06.08.22.08H7.6c.16 0 .22 0 .22-.08q.01 0-.05-.12Zm-.57.8 2.69 5.4H1.14Zm0 0" style="stroke:none"/></symbol><clipPath id="a"><path d="M0 0h147.79v218.48H0Zm0 0"/></clipPath><clipPath id="b"><path d="M131 85h16.79v33H131Zm0 0"/></clipPath><clipPath id="c"><path d="M126 80h21.79v43H126Zm0 0"/></clipPath></defs><g clip-path="url(#a)"><path d="M0 218.48h147.79V0H0Zm0 0" style="stroke:none;fill-rule:nonzero;fill:#ffe4c8;fill-opacity:1"/></g><path d="M7.8 0A7.8 7.8 0 1 1-7.8 0 7.8 7.8 0 0 1 7.8 0Zm0 0" style="fill-rule:nonzero;fill:#ff8000;fill-opacity:1;stroke-width:.3985;stroke-linecap:butt;stroke-linejoin:miter;stroke:#000;stroke-opacity:1;stroke-miterlimit:10" transform="matrix(1 0 0 -1 46.24 101.55)"/><g clip-path="url(#b)"><path d="M147.59 101.55c0-8.62-3.5-15.6-7.8-15.6s-7.8 6.98-7.8 15.6c0 8.6 3.5 15.59 7.8 15.59s7.8-6.98 7.8-15.6m0 0" style="stroke:none;fill-rule:nonzero;fill:gray;fill-opacity:1"/></g><g clip-path="url(#c)"><path d="M101.34 0c0 8.61-3.48 15.6-7.79 15.6-4.3 0-7.8-6.99-7.8-15.6s3.5-15.6 7.8-15.6 7.8 6.99 7.8 15.6Zm0 0" style="fill:none;stroke-width:.3985;stroke-linecap:butt;stroke-linejoin:miter;stroke:#000;stroke-opacity:1;stroke-miterlimit:10" transform="matrix(1 0 0 -1 46.24 101.55)"/></g><path d="M15.6 93.55c0 4.3-6.99 7.8-15.6 7.8s-15.6-3.5-15.6-7.8 6.99-7.8 15.6-7.8 15.6 3.5 15.6 7.8Zm0 0" style="fill-rule:nonzero;fill:gray;fill-opacity:1;stroke-width:.3985;stroke-linecap:butt;stroke-linejoin:miter;stroke:#000;stroke-opacity:1;stroke-miterlimit:10" transform="matrix(1 0 0 -1 46.24 101.55)"/><path d="M0-2.34h89.9" style="fill:none;stroke-width:1.49442;stroke-linecap:butt;stroke-linejoin:miter;stroke:red;stroke-opacity:1;stroke-dasharray:2.98883,2.98883;stroke-miterlimit:10" transform="matrix(1 0 0 -1 46.24 101.55)"/><path d="m139.79 103.88-5.82-2.9 2.18 2.9-2.18 2.91" style="stroke:none;fill-rule:nonzero;fill:red;fill-opacity:1"/><path d="M93.54 2.34H3.64" style="fill:none;stroke-width:1.49442;stroke-linecap:butt;stroke-linejoin:miter;stroke:red;stroke-opacity:1;stroke-dasharray:2.98883,2.98883;stroke-miterlimit:10" transform="matrix(1 0 0 -1 46.24 101.55)"/><path d="m46.24 99.2 5.82 2.92-2.18-2.91 2.18-2.91" style="stroke:none;fill-rule:nonzero;fill:red;fill-opacity:1"/><path d="M-2.34 0v89.9" style="fill:none;stroke-width:1.49442;stroke-linecap:butt;stroke-linejoin:miter;stroke:red;stroke-opacity:1;stroke-dasharray:2.98883,2.98883;stroke-miterlimit:10" transform="matrix(1 0 0 -1 46.24 101.55)"/><path d="M43.9 8 41 13.82l2.9-2.18 2.91 2.18" style="stroke:none;fill-rule:nonzero;fill:red;fill-opacity:1"/><use xlink:href="#d" x="30.73" y="56.17" style="fill:red;fill-opacity:1"/><use xlink:href="#e" x="35.37" y="57.66" style="fill:red;fill-opacity:1"/><path d="M2.34 93.55V3.63" style="fill:none;stroke-width:1.49442;stroke-linecap:butt;stroke-linejoin:miter;stroke:red;stroke-opacity:1;stroke-dasharray:2.98883,2.98883;stroke-miterlimit:10" transform="matrix(1 0 0 -1 46.24 101.55)"/><path d="m48.58 101.55 2.9-5.82-2.9 2.18-2.9-2.18" style="stroke:none;fill-rule:nonzero;fill:red;fill-opacity:1"/><use xlink:href="#d" x="52.65" y="56.17" style="fill:red;fill-opacity:1"/><use xlink:href="#f" x="57.28" y="57.66" style="fill:red;fill-opacity:1"/><path d="M-23.39.8v91.95" style="fill:none;stroke-width:.79701;stroke-linecap:butt;stroke-linejoin:miter;stroke:#000;stroke-opacity:1;stroke-miterlimit:10" transform="matrix(1 0 0 -1 46.24 101.55)"/><path d="M-2.55 3.11C-2.08 1.24-1.05.36 0 .01c-1.04-.37-2.08-1.26-2.55-3.12" style="fill:none;stroke-width:.79701;stroke-linecap:round;stroke-linejoin:round;stroke:#000;stroke-opacity:1;stroke-miterlimit:10" transform="matrix(0 1 1 0 22.85 101.15)"/><path d="M-2.55 3.11C-2.1 1.25-1.05.36 0 0c-1.05-.36-2.09-1.24-2.55-3.11" style="fill:none;stroke-width:.79701;stroke-linecap:round;stroke-linejoin:round;stroke:#000;stroke-opacity:1;stroke-miterlimit:10" transform="matrix(0 -1 -1 0 22.85 8.4)"/><use xlink:href="#g" x="3.32" y="58.18" style="fill:#000;fill-opacity:1"/><use xlink:href="#h" x="11.62" y="58.18" style="fill:#000;fill-opacity:1"/></svg>
